public/images/illustrations/not_found.svg

<svg xmlns="http://www.w3.org/2000/svg" width="656" height="458.68644" viewBox="0 0 656 458.68644" xmlns:xlink="http://www.w3.org/1999/xlink"><rect y="434.34322" width="656" height="2" fill="#3f3d56"/><g><path d="M471.97091,210.81398c-6.07329-36.41746-37.72841-64.16942-75.86422-64.16942H240.1493c-38.12098,0-69.76869,27.72972-75.86422,64.12498-.70358,4.16242-1.06653,8.44332-1.06653,12.80572v135.886c0,4.36236,.36295,8.63589,1.06653,12.79831,4.85126,28.99624,25.92996,52.49686,53.58563,60.84393,7.05095,2.13306,14.53143,3.28105,22.27859,3.28105h155.95739c7.74715,0,15.22764-1.14799,22.27859-3.28105,27.66309-8.35449,48.7492-31.86994,53.58563-60.88837,.69621-4.14759,1.05912-8.40629,1.05912-12.75387V223.57526c0-4.34758-.36291-8.61369-1.05912-12.76128Zm-62.66593,222.28952c-4.28831,.76284-8.69515,1.16282-13.19828,1.16282H240.1493c-4.50313,0-8.90997-.39998-13.19828-1.16282-35.01768-6.22884-61.60677-36.83226-61.60677-73.64224v-45.10525c0-127.45005,103.31244-165.58581,230.76245-165.58581,41.31315,0,74.80506,33.49195,74.80506,74.80506v135.886c-100.2906,13.42047-26.5891,67.4134-61.60677,73.64224Z" fill="#3f3d56"/><polygon points="349.16197 249.18644 355.16197 288.18644 443.16197 276.18644 434.66197 230.61951 349.16197 249.18644" fill="#6c63ff"/><rect x="381.84178" y="30.34219" width="36.3846" height="37.66125" fill="#2f2e41"/><polygon points="385.16197 70.18644 394.16197 43.18644 411.70446 43.18644 412.62654 70.18644 385.16197 70.18644" fill="#ffb6b6"/><polygon points="385.16197 70.18644 394.16197 43.18644 411.70446 43.18644 412.62654 70.18644 385.16197 70.18644" opacity=".1"/><path d="M394.66197,310.68644l-1,104-1,8v11.48425l15,1.51575,1-23s16-45,12-80-2-25-2-25l-24,3Z" fill="#ffb6b6"/><path d="M404.18408,318.85365l-36.90133,97.23832-1.97873,7.81567-4.17771,10.69742-14.52368-4.04476,7.43539-21.78796s1.46619-47.7373,17.92433-78.88421c16.45814-31.1469,10.9574-22.5596,10.9574-22.5596l21.26433,11.52511Z" fill="#ffb6b6"/><path d="M385.16197,67.18644l-27,12,17.2396,89.01208-2.72386,127.75563-18,38s-3.01575,21.73228,27.98425,7.73228,66-18,66-18l-8.5-58.5-7.5-153.5,1-34-22-14-26.5,3.5Z" fill="#2f2e41"/><path d="M370.12429,335.34322l-29.96232-50.15678,34.2396-116.98792-16.2396-89.01208,28.49044-12.19685s14.74916,14.36248,14.74916,26.20894-31.27728,242.1447-31.27728,242.1447Z" fill="#e6e6e6"/><path d="M435.12429,325.34322l-27.19694-233.62812c-.34341-2.94999,.16014-5.93678,1.45177-8.6111l7.78284-16.11441,30.5,8.69685-12.2604,95.51208,32.7604,93.98792-33.03768,60.15678Z" fill="#e6e6e6"/><path d="M410.66197,433.68644s-19-11-21-5-3,11-3,11c0,0-5,19,10,19s14-8.64173,14-8.64173v-16.35827Z" fill="#2f2e41"/><path d="M344.53573,427.606s21.69978-3.33458,21.38009,2.98189c-.31969,6.31647-1.20709,11.33768-1.20709,11.33768,0,0-2.25433,19.51712-16.22662,14.06046-13.97229-5.45666-9.89714-13.14253-9.89714-13.14253l5.95076-15.2375Z" fill="#2f2e41"/><circle cx="404.10297" cy="33.02147" r="24.85993" fill="#ffb6b6"/><path d="M423.9647,10.86767c-1.15708-6.12936-7.44914-10.27514-13.66505-10.79501s-12.30453,1.82726-17.90227,4.57921c-3.79456,1.86548-7.53062,3.96811-10.60425,6.87182-3.07363,2.90371-5.46063,6.69692-6.01202,10.88913-.19508,1.48324-.16979,3.03289-.77693,4.40016-.75845,1.708-2.38655,2.86795-3.36916,4.4576-1.76228,2.85096-.95268,6.99858,1.75238,8.97753-3.40024,1.44912-6.89397,2.96069-9.48602,5.59563s-4.08879,6.70308-2.66645,10.11462c.50322,1.20699,1.3348,2.26349,1.76489,3.49843,.81669,2.34499,.03944,5.00909-1.40923,7.02585-1.44868,2.01676-3.49316,3.51228-5.50175,4.97226,5.16196,1.01177,10.43096,1.80015,15.66992,1.32811s10.49707-2.30805,14.29087-5.95176c3.7938-3.64371,5.88084-9.26437,4.51973-14.34539-1.04268-3.89231-3.95898-7.30301-3.95712-11.33256,.00143-3.09747,1.7431-5.89158,3.4249-8.49271,3.6729-5.68066,7.34579-11.36132,11.01869-17.04197,.66067-1.02183,1.35739-2.07924,2.40141-2.70425,1.77606-1.06326,4.07981-.59568,5.95226,.28683,1.87245,.88252,3.58303,2.14867,5.57941,2.69585,4.07452,1.11677,8.80105-1.44789,10.08575-5.47261" fill="#2f2e41"/><path d="M409.2795,61.42524c-2.07158,2.0061-5.057,2.65225-7.82378,3.46516s-5.70979,2.09141-6.955,4.69243c-1.221,2.55043-.33461,5.78793,1.68692,7.76505s4.95817,2.80999,7.78554,2.77077c2.82737-.03922,5.58283-.86796,8.24175-1.8301,7.27053-2.63087,14.15664-6.32148,20.37314-10.919-4.02679-1.11411-6.66108-5.81614-5.50835-9.83205,.93769-3.26677,3.805-5.54528,5.75617-8.32809,3.35958-4.79151,3.91924-11.10753,2.80677-16.85277-1.11247-5.74524-3.73164-11.07097-6.32359-16.3176-.81935-1.65853-1.65806-3.34513-2.9362-4.68245-1.27815-1.33731-3.08783-2.29539-4.92776-2.10379-3.05336,.31795-5.00303,3.66989-5.02377,6.7397s1.32592,5.95491,2.34732,8.84988c1.05231,2.98259,1.7838,6.14409,1.50148,9.29425-.23659,2.63989-1.19668,5.21132-2.7481,7.36029-1.19808,1.65954-2.72478,3.05223-4.02749,4.63097-1.00715,1.22055-1.90009,2.60309-2.16486,4.16321-.48182,2.83914,1.18357,5.71186,.72713,8.55519-.48249,3.0056-3.64519,5.3067-6.65342,4.84085" fill="#2f2e41"/><g><circle cx="333.24859" cy="323.64456" r="85" fill="#6c63ff"/><g><path d="M384.17838,316.82297h-10.56668c-1.64378-9.68714-6.71681-18.46011-14.29229-24.71729-17.43427-14.39992-43.24109-11.94022-57.641,5.49411-.04913,.05563-.09645,.11283-.14168,.17151-1.15062,1.49144-.87427,3.63332,.61717,4.78401,1.49118,1.15069,3.63306,.87447,4.78394-.61697,6.25536-7.5788,15.72368-12.40167,26.31064-12.40167,16.20852,.00195,30.17897,11.40631,33.42571,27.2863h-9.31805c-.39879,.00013-.78459,.13993-1.09083,.39502-.72375,.6028-.82176,1.6781-.21915,2.40185l13.41126,16.09894c.06577,.0789,.13856,.15169,.21759,.21746,.72323,.60326,1.79872,.50583,2.40185-.21746l13.41126-16.09894c.25503-.30624,.39489-.69223,.39515-1.09083,.00026-.94187-.76301-1.70565-1.70487-1.70604Z" fill="#fff"/><path d="M364.3433,344.73371c-1.49144-1.15062-3.63332-.87434-4.78394,.6171-4.96202,6.00781-11.83065,10.1363-19.46436,11.69923-18.46167,3.77988-36.4923-8.12213-40.27225-26.58393h9.31831c.94187-.00039,1.70513-.76418,1.70487-1.70604-.00026-.39853-.14012-.78452-.39515-1.09083l-13.41126-16.09888c-.60313-.72336-1.67862-.82079-2.40185-.21753-.07903,.06577-.15182,.13856-.21759,.21753l-13.41126,16.09888c-.60261,.72375-.5046,1.79911,.21915,2.40185,.30624,.25516,.69204,.39489,1.09083,.39502h10.56642c1.64404,9.68721,6.71681,18.46011,14.29255,24.71729,17.43427,14.39998,43.24109,11.94022,57.641-5.49404,.04913-.0557,.09619-.11296,.14142-.17164,1.15088-1.49144,.87453-3.63326-.61691-4.78401Z" fill="#fff"/></g></g><path id="uuid-46f931a0-b53b-476c-b367-fb65f10d962b-144" d="M356.98147,237.19363c-1.0294,7.36621-5.66458,12.80599-10.35238,12.15011-4.6878-.65589-7.65226-7.15837-6.6215-14.52707,.37137-2.94914,1.4436-5.76647,3.127-8.21626l4.75577-31.15587,14.57296,2.54338-6.23553,30.44414c.94735,2.81843,1.2058,5.82279,.75369,8.76157Z" fill="#ffb6b6"/><path d="M369.66197,77.68644s-15-5-17,13-4,40-4,40c0,0-9,21-5,32s11,3.33071,4,12.66535-6.02479,40.04724-6.02479,40.04724l22.52479-1.13386s12.5-82.57874,12.5-84.57874-7-52-7-52Z" fill="#e6e6e6"/><g><path id="uuid-e7f43b88-b30d-4e93-bef0-000887236ddd-145" d="M467.16133,233.84999c.27882,7.43257-3.33017,13.60114-8.06033,13.7778-4.73016,.17667-8.78938-5.70491-9.06731-13.14017-.15176-2.96856,.4096-5.93029,1.63712-8.63741l-.78368-31.507,14.79315-.05261-.798,31.06591c1.4271,2.60853,2.2086,5.52095,2.27905,8.49347Z" fill="#ffb6b6"/><path d="M444.0696,77.34877s15.08694-4.73121,16.76503,13.30165c1.67809,18.03286,3.28472,51.06508,3.28472,51.06508,0,0,8.62337,21.15744,4.42749,32.08422-4.19589,10.92678-11.05775,3.13365-4.22564,12.59187,6.83211,9.45822,4.37997,36.13126,4.37997,36.13126l-22.50094-1.53611s-10.09427-78.77166-10.05853-80.77134,7.92792-62.86664,7.92792-62.86664Z" fill="#e6e6e6"/></g></g></svg>

<svg width="656" height="459" viewBox="0 0 656 459" fill="none" xmlns="http://www.w3.org/2000/svg">
<g clip-path="url(#clip0_112_1082)">
<path d="M656 434.343H0V436.343H656V434.343Z" fill="#3F3D56"/>
<path d="M471.971 210.814C465.898 174.396 434.243 146.645 396.107 146.645H240.15C202.029 146.645 170.381 174.374 164.285 210.77C163.582 214.932 163.219 219.213 163.219 223.575V359.461C163.219 363.824 163.582 368.097 164.285 372.26C169.137 401.256 190.215 424.756 217.871 433.103C224.922 435.237 232.402 436.385 240.15 436.385H396.107C403.854 436.385 411.335 435.237 418.385 433.103C446.049 424.749 467.135 401.234 471.971 372.215C472.667 368.067 473.03 363.809 473.03 359.461V223.575C473.03 219.228 472.667 214.962 471.971 210.814ZM409.305 433.103C405.017 433.866 400.61 434.266 396.107 434.266H240.15C235.646 434.266 231.24 433.866 226.951 433.103C191.934 426.875 165.344 396.271 165.344 359.461V314.356C165.344 186.906 268.657 148.77 396.107 148.77C437.42 148.77 470.912 182.262 470.912 223.575V359.461C370.621 372.882 444.323 426.875 409.305 433.103V433.103Z" fill="#3F3D56"/>
<path d="M349.162 249.186L355.162 288.186L443.162 276.186L434.662 230.62L349.162 249.186Z" fill="#6C63FF"/>
<path d="M418.226 30.3422H381.842V68.0034H418.226V30.3422Z" fill="#2F2E41"/>
<path d="M385.162 70.1864L394.162 43.1864H411.705L412.627 70.1864H385.162Z" fill="#FFB6B6"/>
<path opacity="0.1" d="M385.162 70.1864L394.162 43.1864H411.705L412.627 70.1864H385.162Z" fill="black"/>
<path d="M394.662 310.686L393.662 414.686L392.662 422.686V434.171L407.662 435.686L408.662 412.686C408.662 412.686 424.662 367.686 420.662 332.686C416.662 297.686 418.662 307.686 418.662 307.686L394.662 310.686Z" fill="#FFB6B6"/>
<path d="M404.184 318.854L367.283 416.092L365.304 423.908L361.126 434.605L346.603 430.56L354.038 408.772C354.038 408.772 355.504 361.035 371.962 329.888C388.42 298.741 382.92 307.328 382.92 307.328L404.184 318.854V318.854Z" fill="#FFB6B6"/>
<path d="M385.162 67.1864L358.162 79.1864L375.402 168.198L372.678 295.954L354.678 333.954C354.678 333.954 351.662 355.686 382.662 341.686C413.662 327.686 448.662 323.686 448.662 323.686L440.162 265.186L432.662 111.686L433.662 77.6864L411.662 63.6864L385.162 67.1864V67.1864Z" fill="#2F2E41"/>
<path d="M370.124 335.343L340.162 285.186L374.402 168.199L358.162 79.1865L386.653 66.9896C386.653 66.9896 401.402 81.3521 401.402 93.1986C401.402 105.045 370.124 335.343 370.124 335.343V335.343Z" fill="#E6E6E6"/>
<path d="M435.124 325.343L407.927 91.7151C407.584 88.7651 408.087 85.7783 409.379 83.104L417.162 66.9896L447.662 75.6865L435.401 171.199L468.162 265.186L435.124 325.343H435.124Z" fill="#E6E6E6"/>
<path d="M410.662 433.686C410.662 433.686 391.662 422.686 389.662 428.686C387.662 434.686 386.662 439.686 386.662 439.686C386.662 439.686 381.662 458.686 396.662 458.686C411.662 458.686 410.662 450.045 410.662 450.045V433.686Z" fill="#2F2E41"/>
<path d="M344.536 427.606C344.536 427.606 366.236 424.271 365.916 430.588C365.597 436.904 364.709 441.926 364.709 441.926C364.709 441.926 362.455 461.443 348.482 455.986C334.51 450.529 338.585 442.843 338.585 442.843L344.536 427.606V427.606Z" fill="#2F2E41"/>
<path d="M404.103 57.8814C417.833 57.8814 428.963 46.7512 428.963 33.0214C428.963 19.2917 417.833 8.1615 404.103 8.1615C390.373 8.1615 379.243 19.2917 379.243 33.0214C379.243 46.7512 390.373 57.8814 404.103 57.8814Z" fill="#FFB6B6"/>
<path d="M423.965 10.8677C422.808 4.7383 416.516 0.592522 410.3 0.0726519C404.084 -0.447218 397.995 1.89991 392.397 4.65186C388.603 6.51734 384.867 8.61997 381.793 11.5237C378.72 14.4274 376.333 18.2206 375.781 22.4128C375.586 23.8961 375.611 25.4457 375.004 26.813C374.246 28.521 372.618 29.6809 371.635 31.2706C369.873 34.1215 370.682 38.2692 373.387 40.2481C369.987 41.6972 366.493 43.2088 363.901 45.8437C361.309 48.4787 359.813 52.5468 361.235 55.9584C361.738 57.1653 362.57 58.2218 363 59.4568C363.817 61.8018 363.039 64.4659 361.591 66.4826C360.142 68.4994 358.097 69.9949 356.089 71.4549C361.251 72.4667 366.52 73.255 371.759 72.783C376.998 72.311 382.256 70.475 386.05 66.8312C389.843 63.1875 391.931 57.5669 390.569 52.4859C389.527 48.5935 386.61 45.1828 386.612 41.1533C386.614 38.0558 388.355 35.2617 390.037 32.6606C393.71 26.9799 397.383 21.2993 401.056 15.6186C401.717 14.5968 402.413 13.5394 403.457 12.9144C405.233 11.8511 407.537 12.3187 409.41 13.2012C411.282 14.0837 412.993 15.3499 414.989 15.897C419.063 17.0138 423.79 14.4492 425.075 10.4244" fill="#2F2E41"/>
<path d="M409.28 61.4252C407.208 63.4313 404.223 64.0775 401.456 64.8904C398.69 65.7033 395.747 66.9818 394.501 69.5828C393.28 72.1333 394.167 75.3708 396.188 77.3479C398.21 79.325 401.146 80.1579 403.974 80.1187C406.801 80.0794 409.557 79.2507 412.215 78.2886C419.486 75.6577 426.372 71.9671 432.589 67.3696C428.562 66.2555 425.928 61.5534 427.08 57.5375C428.018 54.2707 430.885 51.9922 432.836 49.2094C436.196 44.4179 436.756 38.1019 435.643 32.3566C434.531 26.6114 431.912 21.2857 429.32 16.039C428.5 14.3805 427.662 12.6939 426.383 11.3566C425.105 10.0193 423.296 9.06121 421.456 9.25281C418.402 9.57076 416.453 12.9227 416.432 15.9925C416.411 19.0623 417.758 21.9474 418.779 24.8424C419.832 27.825 420.563 30.9865 420.281 34.1366C420.044 36.7765 419.084 39.348 417.533 41.4969C416.335 43.1565 414.808 44.5492 413.505 46.1279C412.498 47.3484 411.605 48.731 411.34 50.2911C410.858 53.1302 412.524 56.003 412.067 58.8463C411.585 61.8519 408.422 64.153 405.414 63.6871" fill="#2F2E41"/>
<path d="M333.249 408.645C380.193 408.645 418.249 370.589 418.249 323.645C418.249 276.7 380.193 238.645 333.249 238.645C286.305 238.645 248.249 276.7 248.249 323.645C248.249 370.589 286.305 408.645 333.249 408.645Z" fill="#329EF1"/>
<path d="M384.179 316.823H373.612C371.969 307.136 366.896 298.363 359.32 292.106C341.886 277.706 316.079 280.165 301.679 297.6C301.63 297.655 301.583 297.713 301.538 297.771C300.387 299.263 300.663 301.405 302.155 302.555C303.646 303.706 305.788 303.43 306.939 301.938C313.194 294.36 322.662 289.537 333.249 289.537C349.458 289.539 363.428 300.943 366.675 316.823H357.357C356.958 316.823 356.572 316.963 356.266 317.218C355.542 317.821 355.444 318.896 356.047 319.62L369.458 335.719C369.524 335.798 369.597 335.87 369.676 335.936C370.399 336.539 371.475 336.442 372.078 335.719L385.489 319.62C385.744 319.314 385.884 318.928 385.884 318.529C385.884 317.587 385.121 316.823 384.179 316.823H384.179Z" fill="white"/>
<path d="M364.344 344.734C362.852 343.583 360.71 343.859 359.56 345.351C354.598 351.359 347.729 355.487 340.095 357.05C321.634 360.83 303.603 348.928 299.823 330.466H309.141C310.083 330.466 310.847 329.702 310.846 328.76C310.846 328.361 310.706 327.975 310.451 327.669L297.04 311.57C296.437 310.847 295.361 310.749 294.638 311.353C294.559 311.419 294.486 311.491 294.42 311.57L281.009 327.669C280.407 328.393 280.505 329.468 281.228 330.071C281.535 330.326 281.92 330.466 282.319 330.466H292.886C294.53 340.153 299.602 348.926 307.178 355.183C324.612 369.583 350.419 367.124 364.819 349.689C364.868 349.634 364.915 349.576 364.961 349.518C366.111 348.026 365.835 345.884 364.344 344.734V344.734Z" fill="white"/>
<path d="M356.981 237.194C355.952 244.56 351.317 250 346.629 249.344C341.941 248.688 338.977 242.185 340.007 234.817C340.379 231.868 341.451 229.05 343.134 226.6L347.89 195.445L362.463 197.988L356.228 228.432C357.175 231.251 357.433 234.255 356.981 237.194V237.194Z" fill="#FFB6B6"/>
<path d="M369.662 77.6865C369.662 77.6865 354.662 72.6865 352.662 90.6865C350.662 108.686 348.662 130.686 348.662 130.686C348.662 130.686 339.662 151.686 343.662 162.686C347.662 173.686 354.662 166.017 347.662 175.352C340.662 184.686 341.637 215.399 341.637 215.399L364.162 214.265C364.162 214.265 376.662 131.686 376.662 129.686C376.662 127.686 369.662 77.6865 369.662 77.6865V77.6865Z" fill="#E6E6E6"/>
<path d="M467.162 233.85C467.44 241.283 463.832 247.451 459.101 247.628C454.371 247.805 450.312 241.923 450.034 234.488C449.882 231.519 450.444 228.557 451.671 225.85L450.887 194.343L465.681 194.291L464.883 225.357C466.31 227.965 467.091 230.878 467.162 233.85V233.85Z" fill="#FFB6B6"/>
<path d="M444.07 77.3488C444.07 77.3488 459.157 72.6176 460.835 90.6505C462.513 108.683 464.119 141.716 464.119 141.716C464.119 141.716 472.743 162.873 468.547 173.8C464.351 184.727 457.489 176.933 464.321 186.392C471.153 195.85 468.701 222.523 468.701 222.523L446.2 220.987C446.2 220.987 436.106 142.215 436.142 140.215C436.177 138.216 444.07 77.3488 444.07 77.3488V77.3488Z" fill="#E6E6E6"/>
</g>
<defs>
<clipPath id="clip0_112_1082">
<rect width="656" height="458.686" fill="white"/>
</clipPath>
</defs>
</svg>
